X: 35841
T: Salty Squid
R: hornpipe
M: 4/4
K: Cmajor
cd|:c2 A2 F2 GA|G2 E2 C2 (3GAB|B2 AB c2 A2|G4 GA|
G2 E2 C2 cd|c2 A2 F2 (3GAB|B2 AB c2 c2:|
|:c2 {A}GAGF E2|C2 c2 c2 FE|D2 D2c2|
c2 {G}AGAB c2|1 A2 G2 c2 cA|GF E2C2 cd:|2 A2 G2 c2 cB|AB c4||

